assets/images/per2-mob.svg

<svg width="253" height="352" viewBox="0 0 253 352" fill="none" xmlns="http://www.w3.org/2000/svg">
<path d="M12 319.797C12 327.182 10.278 330 5.98878 330C1.69954 330 0 326.96 0 319.785C0 312.06 2.42415 310 6.08722 310C9.98286 310 12 312.375 12 319.797ZM3.36784 319.682C3.36784 324.794 3.73908 327.436 6.01116 327.436C8.28325 327.436 8.63211 324.913 8.63211 319.744C8.63211 314.41 8.18487 312.585 6.02907 312.585C3.99403 312.581 3.36784 314.521 3.36784 319.682Z" fill="#FFB75E"/>
<path d="M252.989 266.215C252.989 266.37 252.989 266.52 252.989 266.675C252.867 268.924 251.914 271.03 250.338 272.533C248.763 274.036 246.692 274.813 244.58 274.695C242.468 274.576 240.486 273.572 239.067 271.901C237.648 270.23 236.908 268.029 237.009 265.779C237.119 263.562 238.037 261.478 239.568 259.971C241.098 258.464 243.12 257.652 245.204 257.709C247.287 257.766 249.268 258.687 250.724 260.275C252.18 261.864 252.997 263.995 253 266.215L252.989 266.215ZM240.702 266.215C240.732 267.434 241.212 268.591 242.037 269.436C242.862 270.281 243.966 270.746 245.11 270.73C246.254 270.714 247.347 270.218 248.151 269.351C248.955 268.483 249.406 267.313 249.406 266.094C249.406 264.875 248.955 263.705 248.151 262.838C247.347 261.97 246.254 261.475 245.11 261.459C243.966 261.443 242.862 261.908 242.037 262.753C241.212 263.597 240.732 264.755 240.702 265.973L240.702 266.215Z" fill="#FFB75E"/>
<path d="M128.014 19.7066C83.9325 19.7066 47.6788 53.2881 43.3472 96.3115C43.1405 98.3741 42.4434 100.357 41.3143 102.094C40.1851 103.831 38.6569 105.272 36.8576 106.296C28.405 111.111 21.3751 118.081 16.4823 126.5C11.5895 134.918 9.00803 144.484 9.00024 154.225L9.00024 219.725C8.99252 220.224 9.16887 220.708 9.49543 221.084C9.82199 221.461 10.2758 221.703 10.7698 221.765C11.0431 221.792 11.319 221.761 11.5797 221.675C11.8404 221.588 12.08 221.448 12.283 221.262C12.4861 221.077 12.648 220.851 12.7584 220.599C12.8688 220.347 12.9251 220.075 12.9238 219.8L12.9238 154.217C12.9113 142.951 16.6257 131.999 23.4861 123.073C29.8972 114.712 43.1353 117.404 45.921 127.574C55.8084 163.691 88.8096 190.232 127.998 190.232C167.187 190.232 200.192 163.691 210.079 127.574C212.861 117.404 226.099 114.712 232.51 123.073C239.372 131.999 243.087 142.951 243.076 154.217L243.076 258.657C243.069 259.155 243.244 259.638 243.57 260.015C243.896 260.391 244.349 260.634 244.842 260.697C245.116 260.724 245.392 260.694 245.653 260.607C245.914 260.521 246.154 260.381 246.358 260.195C246.561 260.01 246.724 259.784 246.834 259.532C246.945 259.279 247.001 259.007 247 258.731L247 154.217C246.992 144.476 244.411 134.91 239.518 126.492C234.625 118.073 227.595 111.103 219.143 106.288C217.343 105.264 215.815 103.824 214.686 102.086C213.557 100.349 212.86 98.3663 212.653 96.3036C208.349 53.2881 172.099 19.7066 128.014 19.7066Z" fill="#FFB75E"/>
<path d="M129.528 25.7307C172.411 26.7864 206.946 61.1413 207.977 103.75C209.074 149.138 171.538 186.597 125.862 185.69C105.076 185.294 85.2532 176.912 70.5525 162.303C55.8518 147.695 47.4164 127.995 47.0164 107.339C46.0997 61.9116 83.8208 24.6203 129.528 25.7307Z" fill="url(#paint0_linear_1227_16)"/>
<path d="M180.32 52.7964C151.181 23.6377 104.033 23.5423 75.0109 52.5832C45.9894 81.6241 46.0848 128.804 75.224 157.963C104.363 187.121 151.512 187.217 180.534 158.176C209.555 129.135 209.46 81.9551 180.32 52.7964Z" fill="#F9F9F9"/>
<path d="M12 252.564L12 252.849C12 253.607 11.842 254.334 11.5607 254.87C11.2794 255.406 10.8978 255.707 10.5 255.707C10.1022 255.707 9.72065 255.406 9.43934 254.87C9.15804 254.334 9 253.607 9 252.849L9 252.564C9 251.806 9.15804 251.079 9.43934 250.543C9.72065 250.008 10.1022 249.707 10.5 249.707C10.8978 249.707 11.2794 250.008 11.5607 250.543C11.842 251.079 12 251.806 12 252.564Z" fill="#FFB75E"/>
<path d="M12 285.634L12 286.02C12 286.531 11.842 287.021 11.5607 287.383C11.2794 287.744 10.8978 287.947 10.5 287.947C10.1022 287.947 9.72065 287.744 9.43934 287.383C9.15804 287.021 9 286.531 9 286.02L9 285.634C9 285.123 9.15804 284.633 9.43934 284.271C9.72065 283.91 10.1022 283.707 10.5 283.707C10.8978 283.707 11.2794 283.91 11.5607 284.271C11.842 284.633 12 285.123 12 285.634ZM12 317.512L12 317.897C12 318.409 11.842 318.899 11.5607 319.26C11.2794 319.622 10.8978 319.825 10.5 319.825C10.1022 319.825 9.72065 319.622 9.43934 319.26C9.15804 318.899 9 318.409 9 317.897L9 317.512C9 317.001 9.15804 316.51 9.43934 316.149C9.72065 315.787 10.1022 315.584 10.5 315.584C10.8978 315.584 11.2794 315.787 11.5607 316.149C11.842 316.51 12 317.001 12 317.512ZM12 349.393L12 349.779C12 350.29 11.842 350.78 11.5607 351.142C11.2794 351.503 10.8978 351.707 10.5 351.707C10.1022 351.707 9.72065 351.503 9.43934 351.142C9.15804 350.78 9 350.29 9 349.779L9 349.393C9 348.882 9.15804 348.392 9.43934 348.031C9.72065 347.669 10.1022 347.466 10.5 347.466C10.8978 347.466 11.2794 347.669 11.5607 348.031C11.842 348.392 12 348.882 12 349.393Z" fill="#FFB75E"/>
<path d="M13 329V328.826C13.0205 325.929 14.415 323.574 17.3967 320.362C19.7263 317.836 20.3333 317.05 20.3333 315.07C20.3333 313.568 19.9601 312.391 18.3155 312.391C16.6708 312.391 16.1622 313.64 16.0884 315.643H13.1149C13.1436 312.758 14.4642 310 18.3975 310C22.0887 310 23.4791 312.166 23.4791 315.137C23.4791 317.481 22.7942 318.722 20.2636 321.302C18.2662 323.353 16.9415 325.111 16.5436 326.439H24L23.5899 328.992L13 329Z" fill="#FFB75E"/>
<path d="M151.25 85.1406V81.2656H141.562V78.3594H139.625V81.2656H131.875V78.3594H129.938V81.2656H122.188V78.3594H120.25V81.2656H112.5V78.3594H110.562V81.2656H100.875V127.766H104.75V131.641H155.125V85.1406H151.25ZM102.812 83.2031H110.562V85.1406H109.594V87.0781H113.469V85.1406H112.5V83.2031H120.25V85.1406H119.281V87.0781H123.156V85.1406H122.188V83.2031H129.938V85.1406H128.969V87.0781H132.844V85.1406H131.875V83.2031H139.625V85.1406H138.656V87.0781H142.531V85.1406H141.562V83.2031H149.312V91.9219H102.812V83.2031ZM102.812 125.828V93.8594H149.312V125.828H102.812ZM153.188 129.703H106.688V127.766H151.25V87.0781H153.188V129.703Z" fill="black" fill-opacity="0.62"/>
<path d="M134.781 96.7656H117.344C117.087 96.7656 116.84 96.8677 116.659 97.0494C116.477 97.231 116.375 97.4774 116.375 97.7344V121.953C116.375 122.21 116.477 122.456 116.659 122.638C116.84 122.82 117.087 122.922 117.344 122.922H134.781C135.038 122.922 135.285 122.82 135.466 122.638C135.648 122.456 135.75 122.21 135.75 121.953V97.7344C135.75 97.4774 135.648 97.231 135.466 97.0494C135.285 96.8677 135.038 96.7656 134.781 96.7656ZM133.812 120.984H118.312V98.7031H133.812V120.984Z" fill="black" fill-opacity="0.62"/>
<path d="M130.48 100.641H121.645C121.41 100.641 121.219 100.831 121.219 101.067V103.121C121.219 103.356 121.41 103.547 121.645 103.547H130.48C130.715 103.547 130.906 103.356 130.906 103.121V101.067C130.906 100.831 130.715 100.641 130.48 100.641Z" fill="black" fill-opacity="0.62"/>
<path d="M121.597 118.998H125.685C126.266 118.998 126.014 118.088 126.063 117.487C126.06 117.388 126.02 117.293 125.949 117.223C125.879 117.152 125.784 117.112 125.685 117.109H121.597C121.497 117.112 121.403 117.152 121.332 117.223C121.262 117.293 121.222 117.388 121.219 117.487C121.267 118.088 121.016 118.989 121.597 118.998Z" fill="black" fill-opacity="0.62"/>
<path d="M130.528 117.109H128.378C128.169 117.109 128 117.279 128 117.487V118.669C128 118.878 128.169 119.047 128.378 119.047H130.528C130.737 119.047 130.906 118.878 130.906 118.669V117.487C130.906 117.279 130.737 117.109 130.528 117.109Z" fill="black" fill-opacity="0.62"/>
<path d="M122.188 105.484C121.931 105.484 121.684 105.586 121.502 105.768C121.321 105.95 121.219 106.196 121.219 106.453C121.219 106.71 121.321 106.956 121.502 107.138C121.684 107.32 121.931 107.422 122.188 107.422C122.444 107.422 122.691 107.32 122.873 107.138C123.054 106.956 123.156 106.71 123.156 106.453C123.156 106.196 123.054 105.95 122.873 105.768C122.691 105.586 122.444 105.484 122.188 105.484ZM126.062 105.484C125.806 105.484 125.559 105.586 125.377 105.768C125.196 105.95 125.094 106.196 125.094 106.453C125.094 106.71 125.196 106.956 125.377 107.138C125.559 107.32 125.806 107.422 126.062 107.422C126.319 107.422 126.566 107.32 126.748 107.138C126.929 106.956 127.031 106.71 127.031 106.453C127.031 106.196 126.929 105.95 126.748 105.768C126.566 105.586 126.319 105.484 126.062 105.484ZM129.938 107.422C130.194 107.422 130.441 107.32 130.623 107.138C130.804 106.956 130.906 106.71 130.906 106.453C130.906 106.196 130.804 105.95 130.623 105.768C130.441 105.586 130.194 105.484 129.938 105.484C129.681 105.484 129.434 105.586 129.252 105.768C129.071 105.95 128.969 106.196 128.969 106.453C128.969 106.71 129.071 106.956 129.252 107.138C129.434 107.32 129.681 107.422 129.938 107.422ZM122.188 109.359C121.931 109.359 121.684 109.461 121.502 109.643C121.321 109.825 121.219 110.071 121.219 110.328C121.219 110.585 121.321 110.831 121.502 111.013C121.684 111.195 121.931 111.297 122.188 111.297C122.444 111.297 122.691 111.195 122.873 111.013C123.054 110.831 123.156 110.585 123.156 110.328C123.156 110.071 123.054 109.825 122.873 109.643C122.691 109.461 122.444 109.359 122.188 109.359ZM126.062 109.359C125.806 109.359 125.559 109.461 125.377 109.643C125.196 109.825 125.094 110.071 125.094 110.328C125.094 110.585 125.196 110.831 125.377 111.013C125.559 111.195 125.806 111.297 126.062 111.297C126.319 111.297 126.566 111.195 126.748 111.013C126.929 110.831 127.031 110.585 127.031 110.328C127.031 110.071 126.929 109.825 126.748 109.643C126.566 109.461 126.319 109.359 126.062 109.359ZM129.938 111.297C130.194 111.297 130.441 111.195 130.623 111.013C130.804 110.831 130.906 110.585 130.906 110.328C130.906 110.071 130.804 109.825 130.623 109.643C130.441 109.461 130.194 109.359 129.938 109.359C129.681 109.359 129.434 109.461 129.252 109.643C129.071 109.825 128.969 110.071 128.969 110.328C128.969 110.585 129.071 110.831 129.252 111.013C129.434 111.195 129.681 111.297 129.938 111.297ZM122.188 113.234C121.931 113.234 121.684 113.336 121.502 113.518C121.321 113.7 121.219 113.946 121.219 114.203C121.219 114.46 121.321 114.706 121.502 114.888C121.684 115.07 121.931 115.172 122.188 115.172C122.444 115.172 122.691 115.07 122.873 114.888C123.054 114.706 123.156 114.46 123.156 114.203C123.156 113.946 123.054 113.7 122.873 113.518C122.691 113.336 122.444 113.234 122.188 113.234ZM126.062 113.234C125.806 113.234 125.559 113.336 125.377 113.518C125.196 113.7 125.094 113.946 125.094 114.203C125.094 114.46 125.196 114.706 125.377 114.888C125.559 115.07 125.806 115.172 126.062 115.172C126.319 115.172 126.566 115.07 126.748 114.888C126.929 114.706 127.031 114.46 127.031 114.203C127.031 113.946 126.929 113.7 126.748 113.518C126.566 113.336 126.319 113.234 126.062 113.234ZM129.938 115.172C130.194 115.172 130.441 115.07 130.623 114.888C130.804 114.706 130.906 114.46 130.906 114.203C130.906 113.946 130.804 113.7 130.623 113.518C130.441 113.336 130.194 113.234 129.938 113.234C129.681 113.234 129.434 113.336 129.252 113.518C129.071 113.7 128.969 113.946 128.969 114.203C128.969 114.46 129.071 114.706 129.252 114.888C129.434 115.07 129.681 115.172 129.938 115.172Z" fill="black" fill-opacity="0.62"/>
<defs>
<linearGradient id="paint0_linear_1227_16" x1="184.344" y1="162.197" x2="71.3619" y2="48.5082" gradientUnits="userSpaceOnUse">
<stop stop-color="#EBEAEA"/>
<stop offset="1" stop-color="white"/>
</linearGradient>
</defs>
</svg>

<svg width="253" height="352" fill="none" xmlns="http://www.w3.org/2000/svg"><path d="M12 319.797C12 327.182 10.278 330 5.989 330 1.699 330 0 326.96 0 319.785 0 312.06 2.424 310 6.087 310c3.896 0 5.913 2.375 5.913 9.797Zm-8.632-.115c0 5.112.371 7.754 2.643 7.754s2.621-2.523 2.621-7.692c0-5.334-.447-7.159-2.603-7.159-2.035-.004-2.661 1.936-2.661 7.097ZM252.989 266.215v.46c-.122 2.249-1.075 4.355-2.651 5.858-1.575 1.503-3.646 2.28-5.758 2.162-2.112-.119-4.094-1.123-5.513-2.794-1.419-1.671-2.159-3.872-2.058-6.122.11-2.217 1.028-4.301 2.559-5.808 1.53-1.507 3.552-2.319 5.636-2.262 2.083.057 4.064.978 5.52 2.566 1.456 1.589 2.273 3.72 2.276 5.94h-.011Zm-12.287 0a4.782 4.782 0 0 0 1.335 3.221 4.212 4.212 0 0 0 3.073 1.294c1.144-.016 2.237-.512 3.041-1.379a4.798 4.798 0 0 0 1.255-3.257 4.793 4.793 0 0 0-1.255-3.256 4.227 4.227 0 0 0-3.041-1.379 4.212 4.212 0 0 0-3.073 1.294 4.78 4.78 0 0 0-1.335 3.22v.242Z" fill="#FFB75E"/><path d="M128.014 19.707c-44.082 0-80.335 33.581-84.667 76.604a12.986 12.986 0 0 1-6.49 9.985A55.129 55.129 0 0 0 16.483 126.5 55.264 55.264 0 0 0 9 154.225v65.5a2.025 2.025 0 0 0 1.77 2.04 1.968 1.968 0 0 0 1.513-.503 1.961 1.961 0 0 0 .64-1.462v-65.583a51.015 51.015 0 0 1 10.563-31.144c6.411-8.361 19.65-5.669 22.435 4.501 9.887 36.117 42.889 62.658 82.077 62.658 39.189 0 72.194-26.541 82.081-62.658 2.782-10.17 16.02-12.862 22.431-4.501a51.018 51.018 0 0 1 10.566 31.144v104.44a2.024 2.024 0 0 0 1.766 2.04 1.956 1.956 0 0 0 1.516-.502 1.959 1.959 0 0 0 .642-1.464V154.217a55.264 55.264 0 0 0-7.482-27.725 55.134 55.134 0 0 0-20.375-20.204 12.949 12.949 0 0 1-4.457-4.202 12.99 12.99 0 0 1-2.033-5.782c-4.304-43.016-40.554-76.597-84.639-76.597Z" fill="#FFB75E"/><path d="M129.528 25.73c42.883 1.056 77.418 35.411 78.449 78.02 1.097 45.388-36.439 82.847-82.115 81.94-20.786-.396-40.609-8.778-55.31-23.387-14.7-14.608-23.136-34.308-23.536-54.964-.916-45.427 36.805-82.719 82.512-81.608Z" fill="url(#a)"/><path d="M180.32 52.796c-29.139-29.158-76.287-29.254-105.31-.213-29.02 29.041-28.925 76.221.214 105.38 29.139 29.158 76.288 29.254 105.31.213 29.021-29.041 28.926-76.22-.214-105.38Z" fill="#F9F9F9"/><path d="M12 252.564v.285c0 .758-.158 1.485-.44 2.021-.28.536-.662.837-1.06.837s-.78-.301-1.06-.837c-.282-.536-.44-1.263-.44-2.021v-.285c0-.758.158-1.485.44-2.021.28-.535.662-.836 1.06-.836s.78.301 1.06.836c.282.536.44 1.263.44 2.021ZM12 285.634v.386c0 .511-.158 1.001-.44 1.363-.28.361-.662.564-1.06.564s-.78-.203-1.06-.564c-.282-.362-.44-.852-.44-1.363v-.386c0-.511.158-1.001.44-1.363.28-.361.662-.564 1.06-.564s.78.203 1.06.564c.282.362.44.852.44 1.363Zm0 31.878v.385c0 .512-.158 1.002-.44 1.363-.28.362-.662.565-1.06.565s-.78-.203-1.06-.565c-.282-.361-.44-.851-.44-1.363v-.385c0-.511.158-1.002.44-1.363.28-.362.662-.565 1.06-.565s.78.203 1.06.565c.282.361.44.852.44 1.363Zm0 31.881v.386c0 .511-.158 1.001-.44 1.363-.28.361-.662.565-1.06.565s-.78-.204-1.06-.565c-.282-.362-.44-.852-.44-1.363v-.386c0-.511.158-1.001.44-1.362.28-.362.662-.565 1.06-.565s.78.203 1.06.565c.282.361.44.851.44 1.362ZM13 329v-.174c.02-2.897 1.415-5.252 4.397-8.464 2.33-2.526 2.936-3.312 2.936-5.292 0-1.502-.373-2.679-2.017-2.679-1.645 0-2.154 1.249-2.228 3.252h-2.973c.029-2.885 1.35-5.643 5.283-5.643 3.69 0 5.081 2.166 5.081 5.137 0 2.344-.685 3.585-3.215 6.165-1.998 2.051-3.322 3.809-3.72 5.137H24l-.41 2.553L13 329Z" fill="#FFB75E"/><path d="M151.25 85.14v-3.874h-9.688v-2.907h-1.937v2.907h-7.75v-2.907h-1.937v2.907h-7.75v-2.907h-1.938v2.907h-7.75v-2.907h-1.938v2.907h-9.687v46.5h3.875v3.875h50.375v-46.5h-3.875Zm-48.438-1.937h7.75v1.938h-.968v1.937h3.875v-1.937h-.969v-1.938h7.75v1.938h-.969v1.937h3.875v-1.937h-.968v-1.938h7.75v1.938h-.969v1.937h3.875v-1.937h-.969v-1.938h7.75v1.938h-.969v1.937h3.875v-1.937h-.969v-1.938h7.75v8.719h-46.5v-8.719Zm0 42.625V93.859h46.5v31.969h-46.5Zm50.376 3.875h-46.5v-1.937h44.562V87.078h1.938v42.625Z" fill="#000" fill-opacity=".62"/><path d="M134.781 96.766h-17.437a.967.967 0 0 0-.969.968v24.219a.968.968 0 0 0 .969.969h17.437a.966.966 0 0 0 .969-.969V97.734a.967.967 0 0 0-.969-.968Zm-.969 24.218h-15.5v-22.28h15.5v22.28Z" fill="#000" fill-opacity=".62"/><path d="M130.48 100.641h-8.835a.426.426 0 0 0-.426.426v2.054c0 .235.191.426.426.426h8.835a.426.426 0 0 0 .426-.426v-2.054a.426.426 0 0 0-.426-.426ZM121.597 118.998h4.088c.581 0 .329-.91.378-1.511a.387.387 0 0 0-.378-.378h-4.088a.39.39 0 0 0-.378.378c.048.601-.203 1.502.378 1.511ZM130.528 117.109h-2.15a.378.378 0 0 0-.378.378v1.182c0 .209.169.378.378.378h2.15a.378.378 0 0 0 .378-.378v-1.182a.378.378 0 0 0-.378-.378ZM122.188 105.484a.97.97 0 0 0-.686 1.654.97.97 0 0 0 1.654-.685.971.971 0 0 0-.968-.969Zm3.874 0a.97.97 0 1 0 .001 1.94.97.97 0 0 0-.001-1.94Zm3.876 1.938a.97.97 0 1 0-.001-1.94.97.97 0 0 0 .001 1.94Zm-7.75 1.937a.97.97 0 0 0-.686 1.654.97.97 0 0 0 1.654-.685.971.971 0 0 0-.968-.969Zm3.874 0a.97.97 0 1 0 .001 1.94.97.97 0 0 0-.001-1.94Zm3.876 1.938a.97.97 0 1 0-.001-1.94.97.97 0 0 0 .001 1.94Zm-7.75 1.937a.97.97 0 0 0-.686 1.654.97.97 0 0 0 1.654-.685.971.971 0 0 0-.968-.969Zm3.874 0a.97.97 0 1 0 .001 1.94.97.97 0 0 0-.001-1.94Zm3.876 1.938a.97.97 0 1 0-.001-1.94.97.97 0 0 0 .001 1.94Z" fill="#000" fill-opacity=".62"/><defs><linearGradient id="a" x1="184.344" y1="162.197" x2="71.362" y2="48.508" gradientUnits="userSpaceOnUse"><stop stop-color="#EBEAEA"/><stop offset="1" stop-color="#fff"/></linearGradient></defs></svg>
